X:1019
T:The Lark in the Morning
N:"1st Setting"
N:"Collected by Carberry"
B:O'Neill's 1019
Z:Transcribed by Dan G. Petersen, dangp@post6.tele.dk
M:6/8
L:1/8
K:Em
B,|[B,2E2]c BGE|D2d AFD|[B,2E2]c BA|GFE e2e/f/|
gfe dcB|A/B/A.G FED|EFG ABc|BGF E2:|
B|eBe gb.e|dAd fa.f|eBe gb.e|fa.f gb.e|
fa.f gfe|de/d/cd AFD|EFG ABc|BGF E2:|
